!!!OTL: 544. Des Turners Leben.
!!!ARE: Europa, Mitteleuropa, Deutschland
!!!SCT: B0544
!!!TXL: @@DE
!!!YEM: Copyright 1995, estate of Helmut Schaffrath.
**kern	**text
*ICvox	*
*Ivox	*
*clefG2	*
*M6/8	*
*k[b-e-]	*
*B-:	*
!LO:TX:a:t=Leicht und froh.	!
{8f	Dem
=1	=1
4b-	Tur-
8b-	-ner
4dd	ward
8dd	das
=2	=2
4ff	ſchön-
8ff	-ſte
4dd}	Ʒiel,
{8b-	ein
=3	=3
4cc	Le-
8ee-	-ben
4a	vol-
8cc	-ler
=4	=4
4.b-	Kraft,
4r}	.
{8f	ein
=5	=5
4b-	ho-
8b-	-her
4dd	Sinn,
8dd	ein
=6	=6
4ff	froh
8ff	Ge-
4dd}	-fühl,
{8b-	das
=7	=7
4cc	re-
8ee-	-ger
4a	Trieb
8cc	ihm
=8	=8
4.b-	ſchafft.
4r}	.
{8b-	Das
=9	=9
4cc	Le-
8dd	-ben
4cc	giebt
8b-	ihm
=10	=10
4dd	Thä-
8ff	-tig-
4dd}	-keit
{8b-	und
=11	=11
4cc	die-
8b-	-ſe
4cc	Luſt
8ff	und
=12	=12
4.dd	Muth;
4r}	.
{8f	in
=13	=13
4b-	mun-
8b-	-tern
4dd	Trie-
8dd	-ben
=14	=14
4ff	fließt
8ff	die
4dd}	Ʒeit
{8b-	und
=15	=15
4cc	froh
8cc	und
4ff	leicht
8ff	ſein
=16	=16
4.b-	Blut.
4r}	.
==	==
!!!AGN: Turner - Lied
!!!ONB: ESAC (Essen Associative Code) Database: BOEHME
!!!AMT: compound duple
!!!AIN: vox
!!!EED: Helmut Schaffrath
!!!EEV: 1.0
!!!GTL: Turnerlieder
!!Soldatenweiſe 1815. "Es iſt nichts Luſt'gers auf der Welt."
!!@@COMMENT:"Gedicht von Heniſch 1818."
!!@@END:
!!!Text: P. Henisch
!!!URL-scan: https://archive.org/details/BoehmeVtLieder1895/page/n431/mode/2up
!!!ENC: Anna Maria Matuszewska
!!!EEV: 2024/11/07
*-	*-
